Front/img/common/underline/underline-1.svg

<svg width="314" height="10" viewBox="0 0 314 10" fill="none" xmlns="http://www.w3.org/2000/svg">
<path d="M313.492 5.83365C311.055 5.77632 308.516 5.77632 305.977 5.77632C303.54 5.77632 301.204 5.719 298.767 5.66167C287.698 5.37505 276.832 4.8018 265.864 4.8018H256.826C242.202 5.08842 227.68 5.83365 213.158 6.23492C208.995 6.29225 206.151 6.4069 203.105 6.46422C200.871 6.52155 198.535 6.52155 195.59 6.52155H193.051C183.81 6.52155 174.467 6.23492 165.226 5.66167C155.172 5.08843 145.22 4.40053 135.268 4.40053H132.12C130.799 4.45785 129.479 4.45785 128.159 4.51518C126.128 4.62983 123.995 4.68715 121.964 4.74448C111.2 5.37505 100.537 6.4069 89.6708 7.09479C86.3195 7.26677 82.9683 7.43874 79.5155 7.49607C78.5 7.49607 77.586 7.55339 76.5705 7.55339C71.8991 7.55339 67.1261 7.26677 62.5563 6.4069C60.119 5.89097 59.6113 5.83365 57.3771 5.08843C54.5336 4.17123 51.9948 2.85276 49.0498 1.99288C47.1203 1.47696 46.511 1.24766 44.4799 1.01836C43.3629 0.846389 42.2458 0.789062 41.0272 0.789062H40.0116C37.2697 0.846387 34.4263 1.19034 31.7859 1.59161C24.7788 2.79543 17.8732 4.28588 11.0692 5.719C7.81953 6.4069 8.83506 6.1776 5.78849 6.8655C4.36675 7.0948 2.84347 7.38142 1.21863 7.55339C0.40621 7.89734 0 8.29862 0 8.69989C0.101553 9.27314 0.913971 9.78906 2.1326 9.78906C2.53881 9.78906 3.04657 9.67441 3.45278 9.50244C6.80401 8.69989 9.85058 7.84002 13.1003 7.03747C18.6856 5.719 24.271 4.40053 30.1611 3.42601C31.2781 3.25403 32.3952 3.13938 33.5123 2.91008C36.0511 2.68078 36.8635 2.50881 39.3008 2.39416C39.707 2.39416 40.1132 2.45148 40.5194 2.50881C42.4489 2.56613 43.2613 2.62346 44.9877 2.96741C45.597 3.08206 46.2063 3.25403 46.9172 3.42601C49.7607 4.22855 52.1979 5.43238 55.0414 6.29225C57.4786 7.15212 57.7833 7.09479 60.6268 7.78269C61.8454 7.89734 62.9625 8.18397 64.1811 8.24129C67.4308 8.64257 70.8836 8.75721 74.2348 8.75721H76.6721C81.445 8.64257 86.1164 8.35594 90.6863 8.06932C101.451 7.20944 112.012 6.1776 122.777 5.66167C124.909 5.54702 126.94 5.54702 129.073 5.43237H129.987C131.409 5.43237 132.729 5.37505 134.151 5.37505C144.306 5.37505 154.36 6.06295 164.515 6.6362C172.03 6.92282 179.545 7.09479 187.161 7.09479C189.801 7.09479 192.543 7.09479 195.184 7.03747H198.84C203.816 6.92282 207.979 6.75084 213.463 6.57887C224.126 6.23492 234.992 5.77632 245.757 5.60435L248.905 5.54702C252.865 5.4897 254.998 5.43237 257.334 5.43237C259.06 5.43237 260.888 5.4897 263.732 5.4897C275.309 5.54702 286.581 6.29225 298.056 6.46422C300.494 6.52155 302.931 6.52155 305.368 6.52155H312.984C313.188 6.52155 313.289 6.57887 313.391 6.57887C313.797 6.52155 314 6.4069 314 6.1776C314 6.06295 313.797 5.89097 313.492 5.83365Z" fill="#FE3945"/>
</svg>

<svg xmlns="http://www.w3.org/2000/svg" fill="none" viewBox="0 0 314 10"><path fill="#FE3945" d="M313.492 5.834c-2.437-.058-4.976-.058-7.515-.058-2.437 0-4.773-.057-7.21-.114-11.069-.287-21.935-.86-32.903-.86h-9.038c-14.624.286-29.146 1.032-43.668 1.433-4.163.057-7.007.172-10.053.23-2.234.057-4.57.057-7.515.057h-2.539c-9.241 0-18.584-.287-27.825-.86C155.172 5.088 145.22 4.4 135.268 4.4h-3.148c-1.321.057-2.641.057-3.961.114-2.031.115-4.164.172-6.195.23-10.764.63-21.427 1.662-32.293 2.35-3.352.172-6.703.344-10.156.401-1.015 0-1.929.057-2.945.057-4.67 0-9.444-.286-14.014-1.146-2.437-.516-2.945-.573-5.179-1.319-2.843-.917-5.382-2.235-8.327-3.095-1.93-.516-2.539-.745-4.57-.975C43.363.846 42.246.79 41.027.79h-1.015c-2.742.057-5.586.401-8.226.803-7.007 1.203-13.913 2.694-20.717 4.127-3.25.688-2.234.459-5.28 1.146-1.422.23-2.946.516-4.57.688C.406 7.897 0 8.3 0 8.7c.102.573.914 1.09 2.133 1.09a3.65 3.65 0 001.32-.288C6.804 8.7 9.85 7.84 13.1 7.037c5.586-1.318 11.171-2.636 17.061-3.611 1.117-.172 2.234-.287 3.351-.516 2.54-.23 3.352-.401 5.789-.516.406 0 .812.057 1.218.115 1.93.057 2.742.114 4.469.458.609.115 1.218.287 1.93.459 2.843.803 5.28 2.006 8.123 2.866 2.438.86 2.742.803 5.586 1.49 1.218.115 2.335.402 3.554.46 3.25.4 6.703.515 10.054.515h2.437c4.773-.114 9.444-.401 14.014-.688 10.765-.86 21.326-1.891 32.091-2.407 2.132-.115 4.163-.115 6.296-.23h.914c1.422 0 2.742-.057 4.164-.057 10.155 0 20.209.688 30.364 1.261 7.515.287 15.03.459 22.646.459 2.64 0 5.382 0 8.023-.058h3.656c4.976-.114 9.139-.286 14.623-.458 10.663-.344 21.529-.803 32.294-.975l3.148-.057c3.96-.057 6.093-.115 8.429-.115 1.726 0 3.554.058 6.398.058 11.577.057 22.849.802 34.324.974 2.438.058 4.875.058 7.312.058h7.616c.204 0 .305.057.407.057.406-.057.609-.172.609-.401 0-.115-.203-.287-.508-.344z"/></svg>
